X:563
T:My Heart is Sore.
T:ta mo .croi.de crai.dte.
R:air
N:"Plaintively.""Collected from J. O'Neill."
B:O'Neill's 563
Z:transcribed by J.B. Walsh walsh@math.ubc.ca
M:3/4
L:1/8
<START_ANN> %Q:60 <END_ANN>
K:G
GA|B2 Bc AB|.G2 .G2 Bc|d2 e2 dB|A4 de/f/|
g3a bg|ag ed Bd|dcB G2 GBA|G4||
GA|BG dB AB|.G2 .G2 GA|Bd ef ed|e3f gf|
ed Bd gB|A2 G2 Bd|dcB G2 GBA|G4||
